X:1
T:6 Lieder, Op.5
T:Auftrag
T:6. Auftrag
T:Peter Cornelius
T:Ludwig Christoph Heinrich Hölty
T:6 Lieder, Op.5
T:Creative Commons copyright waiver (CC0 1.0 Universal) 
T:Creative Commons copyright waiver (CC0 1.0 Universal) 
C:Peter Cornelius
Z:Ludwig Christoph Heinrich Hölty
Z:Creative Commons copyright waiver (CC0 1.0 Universal)
Z:
L:1/8
M:3/8
K:D
V:1 treble nm="Voice" snm="Vo."
V:1
 z3 | z3 | z3 | z2 A | dA z | z/ FF/(3F/E/F/ | A/>G/E z | z3/4 E/4FG | BA(3E/^D/E/ | A2 G | F3 | %11
w: |||Ihr|Freun- de,|hän- get, wenn ich ge-|stor- ben bin,|die klei- ne|Har- fe hin- ter dem|Al- tar|auf,|
 z FG/F/ | =F2 F | B2- B/_B/ | _BE(3E/^D/E/ | (3F/^E/F/A>G | F=E z | z/ F/BF | ^DD(3D/^E/F/ || %19
w: wo an der|Wand die|To * ten-|krän- ze man- cher ver-|stor- be- ner Mäd- chen|schim- mern.|Der Küs- ter|zeigt dann freund- lich dem|
[K:Eb] ^G/^F/^E/=B/_B/A/ | _G z _e- | e_c/A/F/>c/ | B3 | (3G/A/B/c/B/F | (3G/A/c/BF/ z/ | %25
w: Rei sen- den die klei- ne|Harf' rauscht|* mit dem ro- ten|Band,|das, um die Har- * fe|fest * gesch- lun- gen,|
[K:D] z (3=B/^A/^G/G/F/ | c/B/(3B/^A/^G/ z | =c3/2 z/ =A/E/ | ^DF z | B2 ^G/=D/ | F/>E/C z/ E/ | %31
w: un ter den gold'- nen|Sai- ten flat- * tert.|Oft, sagt er|stau- nend:|tö- nen im|A- bend- gold von|
 =F>GF | =FD z | =F2 G/^F/ | _B/>=F/ F2 | z/ =C/=FF | z =F/F/G/A/ | G/=F/ z z | _BB z | %39
w: selbst * die|Sai- ten,|lei- se- wie|Bie- nen- ton.|Die Kin- der,|her- ge- lockt vom|Kirch- hof,|hör- ten's|
 z/ =B/ =B2- | =B2 A/F/ | edF | c2 B | z3 | z3 | z3 | z3 |] %47
w: und sah'n|* wie die|Krän- * ze|beb- ten.|||||

